public/tools-icons/turborepo.svg

<svg xmlns="http://www.w3.org/2000/svg" width="24" height="24" fill="none"><g clip-path="url(#clip0_140_78)"><path fill="#c8c2ff" d="M11.9906 4.1957C7.6908 4.1957 4.1925 7.6967 4.1925 12C4.1925 16.3033 7.6908 19.8043 11.9906 19.8043C16.2905 19.8043 19.7888 16.3033 19.7888 12C19.7888 7.6967 16.2905 4.1957 11.9906 4.1957ZM11.9906 16.0387C9.7616 16.0387 7.955 14.2308 7.955 12C7.955 9.7692 9.7615 7.9613 11.9906 7.9613C14.2197 7.9613 16.0262 9.7692 16.0262 12C16.0262 14.2308 14.2197 16.0387 11.9906 16.0387ZM12.644 2.9139V0C18.9726 0.3386 24 5.5822 24 12C24 18.4178 18.9726 23.66 12.644 24V21.0861C17.3607 20.7489 21.0956 16.8047 21.0956 12C21.0956 7.1953 17.3606 3.251 12.644 2.9139ZM5.113 17.9586C3.8628 16.514 3.0568 14.6741 2.913 12.654H0C0.151 15.4806 1.2808 18.0457 3.051 20.0208L5.1116 17.9586H5.113ZM11.3372 24V21.0861C9.3172 20.9422 7.4788 20.1371 6.0353 18.8843L3.9747 20.9466C5.9497 22.7196 8.5127 23.8488 11.3357 24H11.3372Z"/></g><defs><clipPath id="clip0_140_78"><path fill="#fff" d="M0 0H24V24H0z"/></clipPath></defs></svg>

<svg xmlns="http://www.w3.org/2000/svg" width="24" height="24" fill="none" viewBox="0 0 24 24"><g clip-path="url(#a)"><path fill="#c8c2ff" d="M11.99 4.196c-4.3 0-7.797 3.5-7.797 7.804 0 4.303 3.498 7.804 7.798 7.804s7.798-3.5 7.798-7.804c0-4.303-3.498-7.804-7.798-7.804m0 11.843A4.037 4.037 0 0 1 7.956 12a4.037 4.037 0 1 1 8.071 0 4.037 4.037 0 0 1-4.035 4.039m.654-13.125V0C18.973.339 24 5.582 24 12s-5.027 11.66-11.356 12v-2.914c4.717-.337 8.452-4.281 8.452-9.086s-3.735-8.749-8.452-9.086M5.113 17.959a9.08 9.08 0 0 1-2.2-5.305H0a11.97 11.97 0 0 0 3.051 7.367l2.06-2.062zM11.337 24v-2.914a9.05 9.05 0 0 1-5.302-2.202l-2.06 2.063A11.95 11.95 0 0 0 11.335 24z"/></g><defs><clipPath id="a"><path fill="#fff" d="M0 0h24v24H0z"/></clipPath></defs></svg>
